X: 30
M:2/4
L:1/16
K:F
uc2|vf2vauf e2ge|vf2c2c2 vdc|dcBA BAGF|EFG"4"A GECE|
vf2af e2ge|f2c2c2 dc|dcBA GFEG|F2F2F2:|
|:vFAcA cAcA|GBdB dBdB|FAcA cAcA|GFED .C2.C2|


